X: 37497
T: Sligo Maid, The
R: reel
M: 4/4
K: Edorian
|:EDFE (3(FGA) Bc|dBAF EDBA|D3ED ~A3|ABDE ~F3D|
E2 FE (3(FGA) Bc|dBAF EDBA|BFAB AFDB|ABDE FE{F}ED:|
|:Beed ~e2de|faec dB Az|B~d3 ~d3B|ABde ~f3e|
Beed ~e2de|(3(faf) ecdB Az|B~d3 BAFB|ABDE F E{F}E D:|

